polaris-icons/icons/TwitchMinor.svg

<svg xmlns="http://www.w3.org/2000/svg" viewBox="0 0 20 20"><path d="M13.5 5.75h-1v3h1v-3Zm-3.75 0h1v3h-1v-3Z"/><path fill-rule="evenodd" d="m6.5 3-2.5 2.5v9h3v2.5l2.5-2.5h2l4.5-4.5v-7h-9.5Zm8.5 6.5-2 2h-2l-1.75 1.75v-1.75h-2.25v-7.5h8v5.5Z"/></svg>

<svg xmlns="http://www.w3.org/2000/svg" viewBox="0 0 20 20"><path fill="#5C5F62" d="M13.5 5.75h-1v3h1v-3ZM9.75 5.75h1v3h-1v-3Z"/><path fill="#5C5F62" fill-rule="evenodd" d="M6.5 3 4 5.5v9h3V17l2.5-2.5h2L16 10V3H6.5ZM15 9.5l-2 2h-2l-1.75 1.75V11.5H7V4h8v5.5Z"/></svg>
